X:1
T: Miss Baird's Jig
C:
R:Jig
Q:180
K:A
M:6/8
L:1/16
F2|E6E6|E2F2A2 c4A2|F6F6|B2d2B2 c4A2|E6E6|E2F2A2 c4A2|F4B2 c4d2|c2A2A2 A4cd|
e2c2e2 e2c2e2|e2c2e2 f4e2|f2d2f2 f2d2f2|f2d2f2 g4f2|e2c2e2 e2c2e2|e2c2e2 f4e2|f2a2f2 e2c2e2|c2A2A2 A4F2|
E6E6|E2F2A2 c4A2|F6F6|B2d2B2 c4A2|E6E6|E2F2A2 c4A2|F4B2 c4d2|c2A2A2 A4cd|
e2c2e2 e2c2e2|e2c2e2 f4e2|f2d2f2 f2d2f2|f2d2f2 g4f2|f2a2f2 e2c2e2|d4e2 f4e2|f2a2f2 e2c2e2|c2A2A2 A4||
